packages/ffe-icons/icons/filled/md/queue_play_next.svg

<svg xmlns="http://www.w3.org/2000/svg" height="24" viewBox="0 -960 960 960" width="24"><path d="M450.001-490.001V-400q0 12.75 8.628 21.374 8.629 8.625 21.384 8.625 12.756 0 21.371-8.625 8.615-8.624 8.615-21.374v-90.001H600q12.75 0 21.375-8.628 8.624-8.629 8.624-21.384 0-12.756-8.624-21.371-8.625-8.615-21.375-8.615h-90.001V-640q0-12.75-8.628-21.375-8.629-8.624-21.384-8.624-12.756 0-21.371 8.624-8.615 8.625-8.615 21.375v90.001H360q-12.75 0-21.374 8.628-8.625 8.629-8.625 21.384 0 12.756 8.625 21.371 8.624 8.615 21.374 8.615h90.001ZM855.386-240l-97.693-97.693q-9.538-9.538-9.731-22.115-.192-12.576 9.731-22.499 9.923-9.923 22.307-9.923 12.384 0 22.307 9.923l117 117q10.846 10.846 10.846 25.307 0 14.461-10.846 25.307l-117 117q-9.538 9.538-22.115 9.73-12.576.193-22.499-9.73-9.923-9.923-9.923-22.307 0-12.384 9.923-22.307L855.386-240Zm-479.139 99.999q-15.553 0-25.899-10.395-10.347-10.394-10.347-25.759v-43.846H172.309q-30.308 0-51.308-21t-21-51.308v-455.382q0-30.308 21-51.308t51.308-21h615.382q30.308 0 51.308 21t21 51.308v237.692q0 12.749-8.625 21.374Q842.749-480 829.999-480h-77.692q-29.827 0-51.067 21.24T680-407.693v157.692q0 12.75-8.625 21.375t-21.374 8.625h-54.617v43.846q0 15.365-10.394 25.759-10.394 10.395-25.759 10.395H376.247Z"/></svg>

<svg xmlns="http://www.w3.org/2000/svg" height="24" viewBox="0 -960 960 960" width="24"><path d="M450-490v90q0 12.75 8.63 21.37 8.63 8.63 21.38 8.63 12.76 0 21.37-8.63Q510-387.25 510-400v-90h90q12.75 0 21.37-8.63 8.63-8.63 8.63-21.38 0-12.76-8.63-21.37Q612.75-550 600-550h-90v-90q0-12.75-8.63-21.37-8.63-8.63-21.38-8.63-12.76 0-21.37 8.63Q450-652.75 450-640v90h-90q-12.75 0-21.37 8.63-8.63 8.63-8.63 21.38 0 12.76 8.63 21.37Q347.25-490 360-490h90Zm405.39 250-97.7-97.69q-9.54-9.54-9.73-22.12-.19-12.57 9.73-22.5 9.93-9.92 22.31-9.92 12.38 0 22.31 9.92l117 117q10.84 10.85 10.84 25.31 0 14.46-10.84 25.31l-117 117q-9.54 9.54-22.12 9.73-12.57.19-22.5-9.73-9.92-9.93-9.92-22.31 0-12.38 9.92-22.31l97.7-97.69ZM376.25-140q-15.56 0-25.9-10.4Q340-160.79 340-176.16V-220H172.31Q142-220 121-241q-21-21-21-51.31v-455.38Q100-778 121-799q21-21 51.31-21h615.38Q818-820 839-799q21 21 21 51.31V-510q0 12.75-8.63 21.38Q842.75-480 830-480h-77.69q-29.83 0-51.07 21.24Q680-437.52 680-407.69V-250q0 12.75-8.62 21.37Q662.75-220 650-220h-54.62v43.84q0 15.37-10.39 25.76Q574.6-140 559.23-140H376.25Z"/></svg>
